src/images/svg/symbols/crash-indices-500-new.svg

<svg width="32" height="32" viewBox="0 0 32 32" fill="none" xmlns="http://www.w3.org/2000/svg">
<path d="M0 14.5856L6.99995 7.58568L9.99995 10.5857L17 3.58568L20 6.58568L26 0.585684V3.41411L20 9.41411L17 6.41411L9.99995 13.4141L6.99995 10.4141L0 17.4141V14.5856Z" fill="#85ACB0"/>
<path d="M27.0001 22L31.7072 17.2929L30.293 15.8787L28.0001 18.1716L28.0001 9.53674e-06H26.5858L26.0001 0.585752L26.0001 18.1716L23.7072 15.8787L22.293 17.2929L27.0001 22Z" fill="#FF444F"/>
<path d="M0 24C0 22.8954 0.895431 22 2 22H17C18.1046 22 19 22.8954 19 24V30C19 31.1046 18.1046 32 17 32H2C0.895431 32 0 31.1046 0 30V24Z" fill="#0E0E0E"/>
<path d="M6.47988 25.4643H3.94388L3.82388 27.2323H3.88788C3.94121 27.099 3.99988 26.979 4.06388 26.8723C4.13321 26.7603 4.21321 26.667 4.30387 26.5923C4.39454 26.5123 4.50388 26.451 4.63188 26.4083C4.75988 26.3656 4.91188 26.3443 5.08788 26.3443C5.32788 26.3443 5.55188 26.3843 5.75988 26.4643C5.96788 26.5443 6.14921 26.6616 6.30387 26.8163C6.45854 26.9656 6.58121 27.1523 6.67188 27.3763C6.76254 27.595 6.80788 27.843 6.80788 28.1203C6.80788 28.403 6.75988 28.667 6.66388 28.9123C6.57321 29.1523 6.43454 29.3603 6.24788 29.5363C6.06654 29.7123 5.84254 29.851 5.57588 29.9523C5.30921 30.0483 5.00521 30.0963 4.66388 30.0963C4.39188 30.0963 4.15188 30.067 3.94388 30.0083C3.73588 29.9496 3.55188 29.8723 3.39188 29.7763C3.23188 29.675 3.09321 29.5603 2.97588 29.4323C2.85854 29.3043 2.75721 29.1683 2.67188 29.0243L3.54387 28.3363C3.66654 28.555 3.81321 28.7416 3.98388 28.8963C4.15454 29.0456 4.38388 29.1203 4.67188 29.1203C4.95988 29.1203 5.17588 29.0376 5.31988 28.8723C5.46921 28.707 5.54388 28.4883 5.54388 28.2163V28.1523C5.54388 27.8963 5.46921 27.6936 5.31988 27.5443C5.17054 27.395 4.96521 27.3203 4.70388 27.3203C4.48521 27.3203 4.30387 27.3656 4.15987 27.4563C4.02121 27.5416 3.91454 27.627 3.83987 27.7123L2.85588 27.5763L3.06387 24.4163H6.47988V25.4643Z" fill="white"/>
<path d="M9.50075 30.0963C8.77008 30.0963 8.22875 29.843 7.87675 29.3363C7.52475 28.8296 7.34875 28.1203 7.34875 27.2083C7.34875 26.2963 7.52475 25.587 7.87675 25.0803C8.22875 24.5736 8.77008 24.3203 9.50075 24.3203C10.2314 24.3203 10.7727 24.5736 11.1248 25.0803C11.4768 25.587 11.6528 26.2963 11.6528 27.2083C11.6528 28.1203 11.4768 28.8296 11.1248 29.3363C10.7727 29.843 10.2314 30.0963 9.50075 30.0963ZM9.50075 29.0803C9.82075 29.0803 10.0421 28.963 10.1648 28.7283C10.2874 28.4936 10.3488 28.163 10.3488 27.7363V26.6803C10.3488 26.2536 10.2874 25.923 10.1648 25.6883C10.0421 25.4536 9.82075 25.3363 9.50075 25.3363C9.18075 25.3363 8.95942 25.4536 8.83675 25.6883C8.71408 25.923 8.65275 26.2536 8.65275 26.6803V27.7363C8.65275 28.163 8.71408 28.4936 8.83675 28.7283C8.95942 28.963 9.18075 29.0803 9.50075 29.0803Z" fill="white"/>
<path d="M14.2976 30.0963C13.567 30.0963 13.0256 29.843 12.6736 29.3363C12.3216 28.8296 12.1456 28.1203 12.1456 27.2083C12.1456 26.2963 12.3216 25.587 12.6736 25.0803C13.0256 24.5736 13.567 24.3203 14.2976 24.3203C15.0283 24.3203 15.5696 24.5736 15.9216 25.0803C16.2736 25.587 16.4496 26.2963 16.4496 27.2083C16.4496 28.1203 16.2736 28.8296 15.9216 29.3363C15.5696 29.843 15.0283 30.0963 14.2976 30.0963ZM14.2976 29.0803C14.6176 29.0803 14.839 28.963 14.9616 28.7283C15.0843 28.4936 15.1456 28.163 15.1456 27.7363V26.6803C15.1456 26.2536 15.0843 25.923 14.9616 25.6883C14.839 25.4536 14.6176 25.3363 14.2976 25.3363C13.9776 25.3363 13.7563 25.4536 13.6336 25.6883C13.511 25.923 13.4496 26.2536 13.4496 26.6803V27.7363C13.4496 28.163 13.511 28.4936 13.6336 28.7283C13.7563 28.963 13.9776 29.0803 14.2976 29.0803Z" fill="white"/>
</svg>

<svg width="32" height="32" fill="none" xmlns="http://www.w3.org/2000/svg"><path d="m0 14.586 7-7 3 3 7-7 3 3 6-6v2.828l-6 6-3-3-7 7-3-3-7 7v-2.828Z" fill="#85ACB0"/><path d="m27 22 4.707-4.707-1.414-1.414L28 18.172V0h-1.414L26 .586v17.586l-2.293-2.293-1.414 1.414L27 22Z" fill="#FF444F"/><path d="M0 24a2 2 0 0 1 2-2h15a2 2 0 0 1 2 2v6a2 2 0 0 1-2 2H2a2 2 0 0 1-2-2v-6Z" fill="#0E0E0E"/><path d="M6.48 25.464H3.944l-.12 1.768h.064c.053-.133.112-.253.176-.36.07-.112.15-.205.24-.28.09-.08.2-.141.328-.184.128-.042.28-.064.456-.064.24 0 .464.04.672.12a1.6 1.6 0 0 1 .912.912c.09.219.136.467.136.744 0 .283-.048.547-.144.792-.09.24-.23.448-.416.624a1.939 1.939 0 0 1-.672.416c-.267.096-.57.144-.912.144a2.66 2.66 0 0 1-.72-.088 2.262 2.262 0 0 1-.552-.232 2.041 2.041 0 0 1-.416-.344 2.456 2.456 0 0 1-.304-.408l.872-.688c.123.219.27.406.44.56.17.15.4.224.688.224.288 0 .504-.082.648-.248.15-.165.224-.384.224-.656v-.064c0-.256-.075-.458-.224-.608-.15-.149-.355-.224-.616-.224-.219 0-.4.046-.544.136-.139.086-.245.171-.32.256l-.984-.136.208-3.16H6.48v1.048ZM9.5 30.096c-.73 0-1.271-.253-1.623-.76-.352-.506-.528-1.216-.528-2.128 0-.912.176-1.621.528-2.128.352-.506.893-.76 1.624-.76.73 0 1.272.254 1.624.76.352.507.528 1.216.528 2.128 0 .912-.176 1.622-.528 2.128-.352.507-.894.76-1.624.76Zm0-1.016c.32 0 .542-.117.665-.352.122-.234.184-.565.184-.992V26.68c0-.426-.062-.757-.184-.992-.123-.234-.344-.352-.664-.352-.32 0-.542.118-.664.352-.123.235-.184.566-.184.992v1.056c0 .427.061.758.184.992.122.235.344.352.664.352ZM14.298 30.096c-.731 0-1.272-.253-1.624-.76-.352-.506-.528-1.216-.528-2.128 0-.912.176-1.621.528-2.128.352-.506.893-.76 1.624-.76.73 0 1.272.254 1.624.76.352.507.528 1.216.528 2.128 0 .912-.176 1.622-.528 2.128-.352.507-.894.76-1.624.76Zm0-1.016c.32 0 .541-.117.664-.352.122-.234.184-.565.184-.992V26.68c0-.426-.062-.757-.184-.992-.123-.234-.344-.352-.664-.352-.32 0-.542.118-.664.352-.123.235-.184.566-.184.992v1.056c0 .427.061.758.184.992.122.235.344.352.664.352Z" fill="#fff"/></svg>
